X:205
T:When Sick, Is It Tea You Want
R:jig
Z:transcribed by Dave Marshall
M:6/8
K:D
|: Add dcB | ABA AFG | ABd ede | fdB B2A |
Add dcB | ABA AFG | ABd ede | fdc d3 :|
|: afd d2c | BGG G3 | bge e2d | cAA A2G |
FAd fdB | ABA AFG | ABd ede | fdc d3 :|
